modules/hawcons-stroke/icons/two-fingers-swipe-right.svg

<?xml version="1.0" encoding="UTF-8" standalone="no"?>
<svg width="32px" height="32px" viewBox="0 0 32 32" version="1.1" xmlns="http://www.w3.org/2000/svg" xmlns:xlink="http://www.w3.org/1999/xlink" xmlns:sketch="http://www.bohemiancoding.com/sketch/ns">
    <!-- Generator: Sketch 3.0.3 (7891) - http://www.bohemiancoding.com/sketch -->
    <title>icon 9 two fingers swipe right</title>
    <desc>Created with Sketch.</desc>
    <defs></defs>
    <g id="Page-1" stroke="none" stroke-width="1" fill="none" fill-rule="evenodd" sketch:type="MSPage">
        <g id="icon-9-two-fingers-swipe-right" sketch:type="MSArtboardGroup" fill="#929292">
            <path d="M20,7 L27.049999,7 L23.799999,10.25 L24.549999,11 L29.049999,6.5 L24.549999,2 L23.799999,2.75 L27.049999,6 L20,6 L20,5.50345613 C20,4.12083549 18.8903379,3 17.5,3 C16.4268195,3 15.5115762,3.67519131 15.1571056,4.62673579 C14.7173504,4.23666852 14.1382496,4 13.5,4 C12.1192881,4 11,5.11541748 11,6.50840855 L11,15.3667868 L11,15.3667868 C9.04484162,13.5381668 6.81276236,12.1742982 5.39111327,13.5959473 C3.40385286,15.5832077 7.57733174,19.4825159 10.8408204,25.4282229 C13.101807,29.5474856 16.3870848,31.0000003 19.5,31.0000003 C24.1944206,31 28,27.1944206 28,22.5 L28,16.5143168 C28,15.1335355 26.8903379,14.014191 25.5,14.014191 C24.937197,14.014191 24.4178303,14.1985158 24,14.5110883 L24,14.4976267 C24,13.1182256 22.8903379,12 21.5,12 C20.937197,12 20.4178303,12.1873681 20,12.5021366 L20,7 L20,7 Z M19.5,30 C15.7402849,29.9995418 13.5099958,27.9488875 11.7473755,24.9830936 C7.83536199,18.4007216 5.03386293,15.3887562 6.12103271,14.2957153 C7.23162978,13.1791206 9.94160039,15.5979243 12,17.7983451 L12,6.50524116 C12,5.66712976 12.6715729,5 13.5,5 C14.3342028,5 15,5.67391942 15,6.50524116 L15,17 L16,17 L16,5.49089813 C16,4.67622006 16.6715729,4 17.5,4 C18.3342028,4 19,4.66749783 19,5.49089813 L19,16 L20,16 L20,14.5064385 C20,13.6715406 20.6715729,13 21.5,13 C22.3342028,13 23,13.6744555 23,14.5064385 L23,17 L24,17 L24,16.5016756 C24,15.6711894 24.6715729,15 25.5,15 C26.3342028,15 27,15.6723231 27,16.5016756 L27,18.7491622 L27,22.5 C27,26.6421358 23.6421358,30 19.5,30 L19.5,30 Z" id="two-fingers-swipe-right" sketch:type="MSShapeGroup"></path>
        </g>
    </g>
</svg>

<svg width="32" height="32" xmlns="http://www.w3.org/2000/svg"><path d="M20 7h7.05l-3.25 3.25.75.75 4.5-4.5-4.5-4.5-.75.75L27.05 6H20v-.497A2.496 2.496 0 0 0 17.5 3a2.499 2.499 0 0 0-2.343 1.627A2.5 2.5 0 0 0 11 6.509v8.858c-1.955-1.829-4.187-3.193-5.609-1.771-1.987 1.987 2.186 5.887 5.45 11.832C13.1 29.548 16.387 31 19.5 31a8.5 8.5 0 0 0 8.5-8.5v-5.986c0-1.38-1.11-2.5-2.5-2.5-.563 0-1.082.185-1.5.497v-.013C24 13.118 22.89 12 21.5 12c-.563 0-1.082.187-1.5.502V7zm-.5 23c-3.76 0-5.99-2.051-7.753-5.017-3.912-6.582-6.713-9.594-5.626-10.687 1.11-1.117 3.82 1.302 5.879 3.502V6.505a1.499 1.499 0 1 1 3 0V17h1V5.49a1.501 1.501 0 0 1 3 0V16h1v-1.494a1.5 1.5 0 1 1 3 0V17h1v-.498a1.5 1.5 0 1 1 3 0V22.5a7.5 7.5 0 0 1-7.5 7.5z" fill="#929292" fill-rule="evenodd"/></svg>
